public/theme/icons/mail-icon.svg

<svg width="68" height="68" viewBox="0 0 68 68" fill="none" xmlns="http://www.w3.org/2000/svg">
<circle cx="34" cy="34" r="34" fill="#0A66C2"/>
<path fill-rule="evenodd" clip-rule="evenodd" d="M17.2148 23.2076L33.688 31.5967C33.8835 31.6963 34.1149 31.6962 34.3103 31.5965L50.7531 23.2088C50.0711 20.7804 47.8407 19 45.1944 19H22.7731C20.1273 19 17.8972 20.7799 17.2148 23.2076ZM50.9676 27.5898L36.128 35.1597C34.7916 35.8414 33.2096 35.8419 31.8728 35.1611L17 27.587V42.2269C17 45.4153 19.5847 48 22.7731 48H45.1944C48.3829 48 50.9676 45.4153 50.9676 42.2269V27.5898Z" fill="white"/>
</svg>

<svg xmlns="http://www.w3.org/2000/svg" width="68" height="68" fill="none">
    <circle cx="34" cy="34" r="34" fill="#0A66C2"/>
    <path fill="#fff" fill-rule="evenodd"
          d="m17.215 23.208 16.473 8.389c.195.1.427.1.622 0l16.443-8.388A5.776 5.776 0 0 0 45.194 19h-22.42a5.776 5.776 0 0 0-5.56 4.208m33.753 4.382-14.84 7.57a4.68 4.68 0 0 1-4.255.001L17 27.587v14.64A5.773 5.773 0 0 0 22.773 48h22.421a5.773 5.773 0 0 0 5.774-5.773z"
          clip-rule="evenodd"/>
</svg>
